X: 3272
T: Kehraus
B:[[Notböcker/Melodier til gamle danske Almuedanse for Violin solo]]
O:Danmark
Z:Søren Bak Vestergaard
M: 2/4
L: 1/8
K: G
B2 c2|dedc|Bd DF|GFGA|B2 c2|dedc|Bd DF|G2 G,2:|\
|:B2 c2|B2 GB|A2 DF|GFGA|B2 c2|B2 GB|A2 DF|G2 G,2:|
(:musicend:)
(:music:)
